src/catppuccin-macchiato-dark-cursors/size_fdiag.svg

<?xml version="1.0" encoding="UTF-8" standalone="no"?>
<svg
   id="svg5327"
   width="32"
   height="32"
   version="1.1"
   sodipodi:docname="size_fdiag.svg"
   inkscape:version="1.1.2 (0a00cf5339, 2022-02-04)"
   xmlns:inkscape="http://www.inkscape.org/namespaces/inkscape"
   xmlns:sodipodi="http://sodipodi.sourceforge.net/DTD/sodipodi-0.dtd"
   xmlns="http://www.w3.org/2000/svg"
   xmlns:svg="http://www.w3.org/2000/svg">
  <sodipodi:namedview
     id="namedview8823"
     pagecolor="#ffffff"
     bordercolor="#666666"
     borderopacity="1.0"
     inkscape:pageshadow="2"
     inkscape:pageopacity="0.0"
     inkscape:pagecheckerboard="0"
     showgrid="false"
     inkscape:zoom="25.96875"
     inkscape:cx="16"
     inkscape:cy="16.019254"
     inkscape:window-width="1896"
     inkscape:window-height="1020"
     inkscape:window-x="9"
     inkscape:window-y="45"
     inkscape:window-maximized="1"
     inkscape:current-layer="svg5327" />
  <defs
     id="defs5329">
    <filter
       id="filter937"
       style="color-interpolation-filters:sRGB"
       width="1.152"
       height="1.099"
       x="-.08"
       y="-.05">
      <feGaussianBlur
         id="feGaussianBlur939"
         stdDeviation=".413" />
    </filter>
    <filter
       id="filter855"
       style="color-interpolation-filters:sRGB"
       width="1.12"
       height="1.12"
       x="-.06"
       y="-.06">
      <feGaussianBlur
         id="feGaussianBlur857"
         stdDeviation=".475" />
    </filter>
    <filter
       id="filter829"
       style="color-interpolation-filters:sRGB"
       width="1.144"
       height="1.1439954"
       x="-0.071999999"
       y="-0.07199771">
      <feGaussianBlur
         id="feGaussianBlur831"
         stdDeviation=".57" />
    </filter>
  </defs>
  <path
     id="path833"
     style="color:#000000;font-style:normal;font-variant:normal;font-weight:normal;font-stretch:normal;font-size:medium;line-height:normal;font-family:sans-serif;font-variant-ligatures:normal;font-variant-position:normal;font-variant-caps:normal;font-variant-numeric:normal;font-variant-alternates:normal;font-feature-settings:normal;text-indent:0;text-align:start;text-decoration:none;text-decoration-line:none;text-decoration-style:solid;text-decoration-color:#000000;letter-spacing:normal;word-spacing:normal;text-transform:none;writing-mode:lr-tb;direction:ltr;text-orientation:mixed;dominant-baseline:auto;baseline-shift:baseline;text-anchor:start;white-space:normal;shape-padding:0;clip-rule:nonzero;display:inline;overflow:visible;visibility:visible;opacity:0.2;isolation:auto;mix-blend-mode:normal;color-interpolation:sRGB;color-interpolation-filters:linearRGB;solid-color:#000000;solid-opacity:1;vector-effect:none;fill:#000000;fill-opacity:1;fill-rule:nonzero;stroke:none;stroke-width:2.00012708;stroke-linecap:round;stroke-linejoin:round;stroke-miterlimit:4;stroke-dasharray:none;stroke-dashoffset:0;stroke-opacity:1;paint-order:normal;color-rendering:auto;image-rendering:auto;shape-rendering:auto;text-rendering:auto;enable-background:accumulate;filter:url(#filter829)"
     d="M 7.513217,6.4994809 A 1.0001635,1.0001635 0 0 0 6.5229198,7.7124485 L 8.2652179,15.712956 A 1.0001635,1.0001635 0 0 0 10.239953,15.55865 c 0.04302,-0.742121 0.299852,-1.661228 0.675824,-2.521646 l 8.047387,8.047387 c -0.860418,0.375972 -1.779523,0.632802 -2.521646,0.675824 a 1.0001635,1.0001635 0 0 0 -0.154306,1.974735 l 8.000508,1.742298 a 1.0001635,1.0001635 0 0 0 1.189528,-1.189529 L 23.74081,16.287211 a 1.0001635,1.0001635 0 0 0 -1.974734,0.158213 c -0.04107,0.739272 -0.300414,1.658016 -0.679731,2.519692 l -8.051293,-8.051293 c 0.861676,-0.379317 1.780418,-0.638658 2.519692,-0.67973 A 1.0001635,1.0001635 0 0 0 15.712957,8.2593583 L 7.7124484,6.5229199 A 1.0001635,1.0001635 0 0 0 7.513217,6.4994809 Z M 8.8062679,8.806268 11.677544,9.4293545 C 11.197953,9.6960875 10.684905,9.8557986 10.269251,10.271205 9.8541938,10.686043 9.6967075,11.197044 9.4313076,11.67559 Z M 22.570814,20.322624 23.1939,23.1939 20.324578,22.56886 c 0.478546,-0.2654 0.989547,-0.422886 1.404386,-0.837943 0.415406,-0.415654 0.575117,-0.928702 0.84185,-1.408293 z" />
  <path
     id="path829"
     style="color:#000000;font-style:normal;font-variant:normal;font-weight:normal;font-stretch:normal;font-size:medium;line-height:normal;font-family:sans-serif;font-variant-ligatures:normal;font-variant-position:normal;font-variant-caps:normal;font-variant-numeric:normal;font-variant-alternates:normal;font-feature-settings:normal;text-indent:0;text-align:start;text-decoration:none;text-decoration-line:none;text-decoration-style:solid;text-decoration-color:#000000;letter-spacing:normal;word-spacing:normal;text-transform:none;writing-mode:lr-tb;direction:ltr;text-orientation:mixed;dominant-baseline:auto;baseline-shift:baseline;text-anchor:start;white-space:normal;shape-padding:0;clip-rule:nonzero;display:inline;overflow:visible;visibility:visible;opacity:1;isolation:auto;mix-blend-mode:normal;color-interpolation:sRGB;color-interpolation-filters:linearRGB;solid-color:#000000;solid-opacity:1;vector-effect:none;fill:#CAD3F5;fill-opacity:1;fill-rule:nonzero;stroke:none;stroke-width:2.00012708;stroke-linecap:round;stroke-linejoin:round;stroke-miterlimit:4;stroke-dasharray:none;stroke-dashoffset:0;stroke-opacity:1;paint-order:normal;color-rendering:auto;image-rendering:auto;shape-rendering:auto;text-rendering:auto;enable-background:accumulate"
     d="M 7.013217,5.9994805 A 1.0001635,1.0001635 0 0 0 6.0229198,7.2124481 L 7.7652179,15.212956 A 1.0001635,1.0001635 0 0 0 9.7399527,15.05865 c 0.043022,-0.742121 0.2998523,-1.661228 0.6758243,-2.521646 l 8.047387,8.047387 c -0.860418,0.375972 -1.779523,0.632802 -2.521646,0.675824 a 1.0001635,1.0001635 0 0 0 -0.154306,1.974735 l 8.000508,1.742298 a 1.0001635,1.0001635 0 0 0 1.189528,-1.189529 L 23.24081,15.787211 a 1.0001635,1.0001635 0 0 0 -1.974734,0.158213 c -0.04107,0.739272 -0.300414,1.658016 -0.679731,2.519692 L 12.535052,10.413823 C 13.396728,10.034506 14.31547,9.7751651 15.054744,9.7340927 A 1.0001635,1.0001635 0 0 0 15.212957,7.7593579 L 7.2124484,6.0229195 A 1.0001635,1.0001635 0 0 0 7.013217,5.9994805 Z M 8.3062679,8.3062676 11.177544,8.9293541 C 10.697953,9.1960871 10.184905,9.3557982 9.7692514,9.7712044 9.3541938,10.186043 9.1967075,10.697044 8.9313076,11.17559 Z M 22.070814,19.822624 22.6939,22.6939 19.824578,22.06886 c 0.478546,-0.2654 0.989547,-0.422886 1.404386,-0.837943 0.415406,-0.415654 0.575117,-0.928702 0.84185,-1.408293 z" />
  <path
     id="path900"
     style="opacity:1;fill:#24273A;fill-opacity:1;stroke:none;stroke-width:0;stroke-linecap:round;stroke-linejoin:round;stroke-miterlimit:4;stroke-dasharray:none;stroke-dashoffset:0;stroke-opacity:1;paint-order:normal"
     d="m 7,7 1.7421875,8 C 8.8182345,13.688212 9.221613,11.732803 10.476562,10.478516 11.731554,9.2242681 13.685301,8.80937 15,8.7363281 Z" />
  <path
     id="path898"
     style="opacity:1;fill:#24273A;fill-opacity:1;stroke:none;stroke-width:0;stroke-linecap:round;stroke-linejoin:round;stroke-miterlimit:4;stroke-dasharray:none;stroke-dashoffset:0;stroke-opacity:1;paint-order:normal"
     d="M 11.568359 10.861328 C 11.431048 10.962558 11.300498 11.068711 11.183594 11.185547 C 11.06738 11.301699 10.95992 11.429862 10.859375 11.566406 L 19.433594 20.140625 C 19.570138 20.04008 19.698301 19.93262 19.814453 19.816406 C 19.931289 19.699501 20.037441 19.568952 20.138672 19.431641 L 11.568359 10.861328 z" />
  <path
     id="path826"
     style="opacity:1;fill:#24273A;fill-opacity:1;stroke:none;stroke-width:0;stroke-linecap:round;stroke-linejoin:round;stroke-miterlimit:4;stroke-dasharray:none;stroke-dashoffset:0;stroke-opacity:1;paint-order:normal"
     d="m 22.263672,16 c -0.07304,1.314699 -0.48794,3.268446 -1.742188,4.523438 C 19.267197,21.778388 17.311788,22.181765 16,22.257812 L 24,24 Z" />
</svg>

<svg xmlns="http://www.w3.org/2000/svg" width="32" height="32">
    <defs>
        <filter id="a" width="1.144" height="1.144" x="-.072" y="-.072" style="color-interpolation-filters:sRGB">
            <feGaussianBlur stdDeviation=".57"/>
        </filter>
    </defs>
    <path d="M7.513 6.5a1 1 0 0 0-.99 1.212l1.742 8.001a1 1 0 0 0 1.975-.154c.043-.742.3-1.662.676-2.522l8.047 8.047c-.86.376-1.78.633-2.521.676a1 1 0 0 0-.155 1.975l8 1.742a1 1 0 0 0 1.19-1.19l-1.736-8a1 1 0 0 0-1.975.158c-.041.74-.3 1.658-.68 2.52l-8.05-8.051c.86-.38 1.78-.639 2.519-.68a1 1 0 0 0 .158-1.975l-8-1.736a1 1 0 0 0-.2-.024m1.293 2.306 2.872.623c-.48.267-.993.427-1.409.842-.415.415-.572.926-.838 1.405Zm13.765 11.517.623 2.87-2.87-.624c.48-.266.99-.423 1.405-.838.415-.416.575-.929.842-1.408" style="color:#000;font-style:normal;font-variant:normal;font-weight:400;font-stretch:normal;font-size:medium;line-height:normal;font-family:sans-serif;font-variant-ligatures:normal;font-variant-position:normal;font-variant-caps:normal;font-variant-numeric:normal;font-variant-alternates:normal;font-feature-settings:normal;text-indent:0;text-align:start;text-decoration:none;text-decoration-line:none;text-decoration-style:solid;text-decoration-color:#000;letter-spacing:normal;word-spacing:normal;text-transform:none;writing-mode:lr-tb;direction:ltr;text-orientation:mixed;dominant-baseline:auto;baseline-shift:baseline;text-anchor:start;white-space:normal;shape-padding:0;clip-rule:nonzero;display:inline;overflow:visible;visibility:visible;opacity:.2;isolation:auto;mix-blend-mode:normal;color-interpolation:sRGB;color-interpolation-filters:linearRGB;solid-color:#000;solid-opacity:1;vector-effect:none;fill:#000;fill-opacity:1;fill-rule:nonzero;stroke:none;stroke-width:2.00012708;stroke-linecap:round;stroke-linejoin:round;stroke-miterlimit:4;stroke-dasharray:none;stroke-dashoffset:0;stroke-opacity:1;paint-order:normal;color-rendering:auto;image-rendering:auto;shape-rendering:auto;text-rendering:auto;enable-background:accumulate;filter:url(#a)"/>
    <path d="M7.013 6a1 1 0 0 0-.99 1.212l1.742 8.001a1 1 0 0 0 1.975-.154c.043-.742.3-1.662.676-2.522l8.047 8.047c-.86.376-1.78.633-2.521.676a1 1 0 0 0-.155 1.975l8 1.742a1 1 0 0 0 1.19-1.19l-1.736-8a1 1 0 0 0-1.975.158c-.041.74-.3 1.658-.68 2.52l-8.05-8.051c.86-.38 1.78-.639 2.519-.68a1 1 0 0 0 .158-1.975l-8-1.736a1 1 0 0 0-.2-.024m1.293 2.306 2.872.623c-.48.267-.993.427-1.409.842-.415.415-.572.926-.838 1.405Zm13.765 11.517.623 2.87-2.87-.624c.48-.266.99-.423 1.405-.838.415-.416.575-.929.842-1.408" style="color:#000;font-style:normal;font-variant:normal;font-weight:400;font-stretch:normal;font-size:medium;line-height:normal;font-family:sans-serif;font-variant-ligatures:normal;font-variant-position:normal;font-variant-caps:normal;font-variant-numeric:normal;font-variant-alternates:normal;font-feature-settings:normal;text-indent:0;text-align:start;text-decoration:none;text-decoration-line:none;text-decoration-style:solid;text-decoration-color:#000;letter-spacing:normal;word-spacing:normal;text-transform:none;writing-mode:lr-tb;direction:ltr;text-orientation:mixed;dominant-baseline:auto;baseline-shift:baseline;text-anchor:start;white-space:normal;shape-padding:0;clip-rule:nonzero;display:inline;overflow:visible;visibility:visible;opacity:1;isolation:auto;mix-blend-mode:normal;color-interpolation:sRGB;color-interpolation-filters:linearRGB;solid-color:#000;solid-opacity:1;vector-effect:none;fill:#cad3f5;fill-opacity:1;fill-rule:nonzero;stroke:none;stroke-width:2.00012708;stroke-linecap:round;stroke-linejoin:round;stroke-miterlimit:4;stroke-dasharray:none;stroke-dashoffset:0;stroke-opacity:1;paint-order:normal;color-rendering:auto;image-rendering:auto;shape-rendering:auto;text-rendering:auto;enable-background:accumulate"/>
    <path d="m7 7 1.742 8c.076-1.312.48-3.267 1.735-4.521S13.685 8.809 15 8.736Z" style="opacity:1;fill:#24273a;fill-opacity:1;stroke:none;stroke-width:0;stroke-linecap:round;stroke-linejoin:round;stroke-miterlimit:4;stroke-dasharray:none;stroke-dashoffset:0;stroke-opacity:1;paint-order:normal"/>
    <path d="M11.568 10.861a3.4 3.4 0 0 0-.384.325 3 3 0 0 0-.325.38l8.575 8.575q.205-.15.38-.325c.117-.116.223-.247.325-.384z" style="opacity:1;fill:#24273a;fill-opacity:1;stroke:none;stroke-width:0;stroke-linecap:round;stroke-linejoin:round;stroke-miterlimit:4;stroke-dasharray:none;stroke-dashoffset:0;stroke-opacity:1;paint-order:normal"/>
    <path d="M22.264 16c-.073 1.315-.488 3.268-1.743 4.523-1.254 1.255-3.21 1.659-4.521 1.735L24 24Z" style="opacity:1;fill:#24273a;fill-opacity:1;stroke:none;stroke-width:0;stroke-linecap:round;stroke-linejoin:round;stroke-miterlimit:4;stroke-dasharray:none;stroke-dashoffset:0;stroke-opacity:1;paint-order:normal"/>
</svg>
